Assets/Icons/interaction/pencil.svg

<svg enable-background="new 0 0 60 60" viewBox="0 0 60 60" xmlns="http://www.w3.org/2000/svg"><path d="m57.78 10.23-2.63-2.63c-2.45-2.44-5.7-4-9.15-4.1-3.62-.1-7.03 1.27-9.58 3.82l-30.99 30.99c-.27.27-.46.61-.54.98l-3.07 13.79c-.32 1.43.96 2.7 2.39 2.39l13.79-3.07c.37-.08.71-.27.98-.54l38.8-38.8c.78-.78.78-2.05 0-2.83zm-52.69 41.96 2.16-9.73 7.57 7.57zm12.72-3.41-9.31-9.31 28.98-28.97 9.31 9.31zm31.1-31.09-9.22-9.22c1.83-1.36 4.06-2.06 6.39-1.96 2.61.11 5.05 1.32 6.9 3.17l1.97 1.97z"/></svg>

<?xml version="1.0" encoding="utf-8"?>
<!-- Generator: Adobe Illustrator 21.1.0, SVG Export Plug-In . SVG Version: 6.00 Build 0)  -->
<svg version="1.1" id="eps" xmlns="http://www.w3.org/2000/svg" xmlns:xlink="http://www.w3.org/1999/xlink" x="0px" y="0px"
	 viewBox="0 0 60 60" style="enable-background:new 0 0 60 60;" xml:space="preserve">
<path d="M57.78,10.23L55.15,7.6c-2.45-2.44-5.7-4-9.15-4.1c-3.62-0.1-7.03,1.27-9.58,3.82L5.43,38.31
	c-0.27,0.27-0.46,0.61-0.54,0.98L1.82,53.08c-0.32,1.43,0.96,2.7,2.39,2.39L18,52.4c0.37-0.08,0.71-0.27,0.98-0.54l38.8-38.8
	C58.56,12.28,58.56,11.01,57.78,10.23z M5.09,52.19l2.16-9.73l7.57,7.57L5.09,52.19z M17.81,48.78L8.5,39.47L37.48,10.5l9.31,9.31
	L17.81,48.78z M48.91,17.69l-9.22-9.22c1.83-1.36,4.06-2.06,6.39-1.96c2.61,0.11,5.05,1.32,6.9,3.17l1.97,1.97L48.91,17.69z"/>
</svg>
